symbols/fr/TIV-distance-50-sign.svg

<?xml version="1.0" encoding="UTF-8" standalone="no"?>
<svg
   width="16"
   height="16"
   viewBox="0 0 16 16"
   version="1.1"
   id="svg326"
   sodipodi:docname="TIV-distance-50-sign.svg"
   inkscape:version="1.2.2 (b0a8486541, 2022-12-01)"
   xmlns:inkscape="http://www.inkscape.org/namespaces/inkscape"
   xmlns:sodipodi="http://sodipodi.sourceforge.net/DTD/sodipodi-0.dtd"
   xmlns="http://www.w3.org/2000/svg"
   xmlns:svg="http://www.w3.org/2000/svg">
  <defs
     id="defs330" />
  <sodipodi:namedview
     id="namedview328"
     pagecolor="#ffffff"
     bordercolor="#666666"
     borderopacity="1.0"
     inkscape:showpageshadow="2"
     inkscape:pageopacity="0.0"
     inkscape:pagecheckerboard="0"
     inkscape:deskcolor="#d1d1d1"
     showgrid="false"
     inkscape:zoom="18.592801"
     inkscape:cx="12.235918"
     inkscape:cy="15.462974"
     inkscape:window-width="1920"
     inkscape:window-height="1008"
     inkscape:window-x="0"
     inkscape:window-y="0"
     inkscape:window-maximized="1"
     inkscape:current-layer="svg326" />
  <path
     fill-rule="nonzero"
     fill="#ffffff"
     fill-opacity="1"
     d="M 0,0 H 16 V 16 H 0 Z m 0,0"
     id="path302" />
  <path
     fill-rule="nonzero"
     fill="#000000"
     fill-opacity="1"
     d="M 0.160156,0.160156 H 15.839844 V 15.839844 H 0.160156 Z m 0,0"
     id="path304" />
  <path
     fill-rule="nonzero"
     fill="#ffffff"
     fill-opacity="1"
     d="M 1.121094,1.121094 H 14.878906 V 14.878906 H 1.121094 Z m 0,0"
     id="path306" />
  <path
     fill-rule="nonzero"
     fill="#000000"
     fill-opacity="1"
     d="m 4.484375,9.441406 c 0.050781,0.277344 0.148437,0.488282 0.289063,0.636719 0.140624,0.152344 0.351562,0.226563 0.621093,0.226563 0.316407,0 0.554688,-0.109376 0.71875,-0.332032 C 6.277344,9.75 6.359375,9.472656 6.359375,9.140625 6.359375,8.808594 6.285156,8.53125 6.128906,8.304688 5.976562,8.078125 5.734375,7.964844 5.410156,7.964844 c -0.15625,0 -0.289062,0.019531 -0.402344,0.058594 C 4.808594,8.09375 4.660156,8.226562 4.558594,8.417969 L 3.421875,8.363281 3.875,4.800781 H 7.429688 V 5.878906 H 4.792969 L 4.558594,7.289062 C 4.753906,7.160156 4.90625,7.078125 5.019531,7.035156 5.203125,6.96875 5.425781,6.933594 5.6875,6.933594 c 0.535156,0 1,0.179687 1.398438,0.539062 0.398437,0.355469 0.597656,0.878906 0.597656,1.5625 0,0.597656 -0.191406,1.128906 -0.574219,1.597656 -0.382813,0.46875 -0.957031,0.703126 -1.71875,0.703126 -0.613281,0 -1.117187,-0.164063 -1.511719,-0.492188 C 3.484375,10.511719 3.265625,10.046875 3.222656,9.441406 Z M 9.625,8.003906 c 0,0.742188 0.0625,1.308594 0.183594,1.703125 0.121094,0.390625 0.371094,0.589844 0.746094,0.589844 0.378906,0 0.625,-0.199219 0.742187,-0.589844 0.117187,-0.394531 0.175781,-0.960937 0.175781,-1.703125 0,-0.777344 -0.05859,-1.351562 -0.175781,-1.726562 C 11.179688,5.90625 10.933594,5.71875 10.554688,5.71875 c -0.375,0 -0.625,0.1875 -0.746094,0.558594 C 9.6875,6.652344 9.625,7.226562 9.625,8.003906 Z m 0.929688,-3.332031 c 0.820312,0 1.398437,0.289063 1.726562,0.867187 0.332031,0.578126 0.496094,1.402344 0.496094,2.464844 0,1.066406 -0.164063,1.886719 -0.496094,2.460938 -0.328125,0.574218 -0.90625,0.863281 -1.726562,0.863281 -0.820313,0 -1.398438,-0.289063 -1.726563,-0.863281 C 8.496094,9.890625 8.332031,9.070312 8.332031,8.003906 c 0,-1.0625 0.164063,-1.886718 0.496094,-2.464844 C 9.15625,4.960938 9.734375,4.671875 10.554688,4.671875 Z M 2.980469,4.152344"
     id="path324" />
</svg>

<?xml version="1.0" encoding="UTF-8"?>
<svg xmlns="http://www.w3.org/2000/svg" xmlns:xlink="http://www.w3.org/1999/xlink" width="16" height="16" viewBox="0 0 16 16">
<rect x="-1.6" y="-1.6" width="19.2" height="19.2" fill="rgb(100%, 100%, 100%)" fill-opacity="1"/>
<path fill-rule="nonzero" fill="rgb(0%, 0%, 0%)" fill-opacity="1" d="M 0.160156 0.160156 L 15.839844 0.160156 L 15.839844 15.839844 L 0.160156 15.839844 Z M 0.160156 0.160156 "/>
<path fill-rule="nonzero" fill="rgb(100%, 100%, 100%)" fill-opacity="1" d="M 1.121094 1.121094 L 14.878906 1.121094 L 14.878906 14.878906 L 1.121094 14.878906 Z M 1.121094 1.121094 "/>
<path fill-rule="nonzero" fill="rgb(0%, 0%, 0%)" fill-opacity="1" d="M 4.484375 9.441406 C 4.535156 9.71875 4.632812 9.929688 4.773438 10.078125 C 4.914062 10.230469 5.125 10.304688 5.394531 10.304688 C 5.710938 10.304688 5.949219 10.195312 6.113281 9.972656 C 6.277344 9.75 6.359375 9.472656 6.359375 9.140625 C 6.359375 8.808594 6.285156 8.53125 6.128906 8.304688 C 5.976562 8.078125 5.734375 7.964844 5.410156 7.964844 C 5.253906 7.964844 5.121094 7.984375 5.007812 8.023438 C 4.808594 8.09375 4.660156 8.226562 4.558594 8.417969 L 3.421875 8.363281 L 3.875 4.800781 L 7.429688 4.800781 L 7.429688 5.878906 L 4.792969 5.878906 L 4.558594 7.289062 C 4.753906 7.160156 4.90625 7.078125 5.019531 7.035156 C 5.203125 6.96875 5.425781 6.933594 5.6875 6.933594 C 6.222656 6.933594 6.6875 7.113281 7.085938 7.472656 C 7.484375 7.828125 7.683594 8.351562 7.683594 9.035156 C 7.683594 9.632812 7.492188 10.164062 7.109375 10.632812 C 6.726562 11.101562 6.152344 11.335938 5.390625 11.335938 C 4.777344 11.335938 4.273438 11.171875 3.878906 10.84375 C 3.484375 10.511719 3.265625 10.046875 3.222656 9.441406 Z M 9.625 8.003906 C 9.625 8.746094 9.6875 9.3125 9.808594 9.707031 C 9.929688 10.097656 10.179688 10.296875 10.554688 10.296875 C 10.933594 10.296875 11.179688 10.097656 11.296875 9.707031 C 11.414062 9.3125 11.472656 8.746094 11.472656 8.003906 C 11.472656 7.226562 11.414062 6.652344 11.296875 6.277344 C 11.179688 5.90625 10.933594 5.71875 10.554688 5.71875 C 10.179688 5.71875 9.929688 5.90625 9.808594 6.277344 C 9.6875 6.652344 9.625 7.226562 9.625 8.003906 Z M 10.554688 4.671875 C 11.375 4.671875 11.953125 4.960938 12.28125 5.539062 C 12.613281 6.117188 12.777344 6.941406 12.777344 8.003906 C 12.777344 9.070312 12.613281 9.890625 12.28125 10.464844 C 11.953125 11.039062 11.375 11.328125 10.554688 11.328125 C 9.734375 11.328125 9.15625 11.039062 8.828125 10.464844 C 8.496094 9.890625 8.332031 9.070312 8.332031 8.003906 C 8.332031 6.941406 8.496094 6.117188 8.828125 5.539062 C 9.15625 4.960938 9.734375 4.671875 10.554688 4.671875 Z M 2.980469 4.152344 "/>
</svg>
